static/assets/img/icons/theme/cooking/sieve.svg

<svg height="24" viewBox="0 0 24 24" width="24" xmlns="http://www.w3.org/2000/svg"><g fill="none" fill-rule="evenodd"><path d="m0 0h24v24h-24z" opacity="0"/><g fill="#000"><path d="m8.61257411 18h5.99999999l.5612574 1.6837722c.1746478.5239434-.1085122 1.0902633-.6324555 1.2649111-.1019665.0339888-.2087457.0513167-.3162278.0513167h-5.2251482c-.55228475 0-1-.4477153-1-1 0-.1074821.01732788-.2142613.0513167-.3162278z" opacity=".3"/><path d="m21 9v1c0 4.9705627-4.0294373 9-9 9-4.97056275 0-9-4.0294373-9-9v-1h-1c-.55228475 0-1-.44771525-1-1s.44771525-1 1-1h20c.5522847 0 1 .44771525 1 1s-.4477153 1-1 1zm-15 2c.55228475 0 1-.4477153 1-1 0-.55228475-.44771525-1-1-1s-1 .44771525-1 1c0 .5522847.44771525 1 1 1zm2 3c.55228475 0 1-.4477153 1-1s-.44771525-1-1-1-1 .4477153-1 1 .44771525 1 1 1zm2 3c.5522847 0 1-.4477153 1-1s-.4477153-1-1-1c-.55228475 0-1 .4477153-1 1s.44771525 1 1 1zm4 0c.5522847 0 1-.4477153 1-1s-.4477153-1-1-1-1 .4477153-1 1 .4477153 1 1 1zm-2-3c.5522847 0 1-.4477153 1-1s-.4477153-1-1-1-1 .4477153-1 1 .4477153 1 1 1zm4 0c.5522847 0 1-.4477153 1-1s-.4477153-1-1-1-1 .4477153-1 1 .4477153 1 1 1zm-6-3c.5522847 0 1-.4477153 1-1 0-.55228475-.4477153-1-1-1-.55228475 0-1 .44771525-1 1 0 .5522847.44771525 1 1 1zm4 0c.5522847 0 1-.4477153 1-1 0-.55228475-.4477153-1-1-1s-1 .44771525-1 1c0 .5522847.4477153 1 1 1zm4 0c.5522847 0 1-.4477153 1-1 0-.55228475-.4477153-1-1-1s-1 .44771525-1 1c0 .5522847.4477153 1 1 1z"/></g></g></svg>

<svg width="24px" height="24px" viewBox="0 0 24 24" version="1.1" xmlns="http://www.w3.org/2000/svg" xmlns:xlink="http://www.w3.org/1999/xlink">
    <title>Icon For Sieve</title>
    <g stroke="none" stroke-width="1" fill="none" fill-rule="evenodd">
        <rect opacity="0" x="0" y="0" width="24" height="24"></rect>
        <path d="M8.61257411,18 L14.6125741,18 L15.1738315,19.6837722 C15.3484793,20.2077156 15.0653193,20.7740355 14.541376,20.9486833 C14.4394095,20.9826721 14.3326303,21 14.2251482,21 L9,21 C8.44771525,21 8,20.5522847 8,20 C8,19.8925179 8.01732788,19.7857387 8.0513167,19.6837722 L8.61257411,18 Z" fill="#000000" opacity="0.3"></path>
        <path d="M21,9 L21,10 C21,14.9705627 16.9705627,19 12,19 C7.02943725,19 3,14.9705627 3,10 L3,9 L2,9 C1.44771525,9 1,8.55228475 1,8 C1,7.44771525 1.44771525,7 2,7 L22,7 C22.5522847,7 23,7.44771525 23,8 C23,8.55228475 22.5522847,9 22,9 L21,9 Z M6,11 C6.55228475,11 7,10.5522847 7,10 C7,9.44771525 6.55228475,9 6,9 C5.44771525,9 5,9.44771525 5,10 C5,10.5522847 5.44771525,11 6,11 Z M8,14 C8.55228475,14 9,13.5522847 9,13 C9,12.4477153 8.55228475,12 8,12 C7.44771525,12 7,12.4477153 7,13 C7,13.5522847 7.44771525,14 8,14 Z M10,17 C10.5522847,17 11,16.5522847 11,16 C11,15.4477153 10.5522847,15 10,15 C9.44771525,15 9,15.4477153 9,16 C9,16.5522847 9.44771525,17 10,17 Z M14,17 C14.5522847,17 15,16.5522847 15,16 C15,15.4477153 14.5522847,15 14,15 C13.4477153,15 13,15.4477153 13,16 C13,16.5522847 13.4477153,17 14,17 Z M12,14 C12.5522847,14 13,13.5522847 13,13 C13,12.4477153 12.5522847,12 12,12 C11.4477153,12 11,12.4477153 11,13 C11,13.5522847 11.4477153,14 12,14 Z M16,14 C16.5522847,14 17,13.5522847 17,13 C17,12.4477153 16.5522847,12 16,12 C15.4477153,12 15,12.4477153 15,13 C15,13.5522847 15.4477153,14 16,14 Z M10,11 C10.5522847,11 11,10.5522847 11,10 C11,9.44771525 10.5522847,9 10,9 C9.44771525,9 9,9.44771525 9,10 C9,10.5522847 9.44771525,11 10,11 Z M14,11 C14.5522847,11 15,10.5522847 15,10 C15,9.44771525 14.5522847,9 14,9 C13.4477153,9 13,9.44771525 13,10 C13,10.5522847 13.4477153,11 14,11 Z M18,11 C18.5522847,11 19,10.5522847 19,10 C19,9.44771525 18.5522847,9 18,9 C17.4477153,9 17,9.44771525 17,10 C17,10.5522847 17.4477153,11 18,11 Z" fill="#000000"></path>
    </g>
</svg>
